X: 20274
T: Joe's First Night
R: jig
M: 6/8
K: Amajor
EFG|"A" A>BA AcB|"F#m" AFC F3|"Bm" DEF Bcd|"E" bag edB|
"F#m" A>BA AcB|AFC "Bm" DEF|"D" DEF "E7" Bdc|"A" (EA)A A2 E||
"A"E2 A2 cB|"F#m"AFC F3|"Bm" dcB def|"E" bag edB|
"F#m" A>BA AcB|AFC "E7" DEF|"Bm" B2 d- "E7" dcB|"A" (EA)A A2z
||"A" (e2 d3 e|EA)A A2A|"Bm" (f2 e3 f|"E7" B6)|
"A"( e2 d3 e|"A" EA)A A2G|"F#m" (F2 c3 B-|"A" A3- A2) (c/d/
||"A" e2 d3 e|E)FA Ace|"Bm" f2 e2 c2|"E7" B6|( e2 d3 e|
"A" E2A) cde|"Bm7" fed fga|"E7"(b6|b3) EFG||

